Adwaita++/apps/scalable/org.gnome.IconPreview.svg

<svg enable-background="new" height="128" viewBox="0 0 128 128" width="128" xmlns="http://www.w3.org/2000/svg" xmlns:xlink="http://www.w3.org/1999/xlink">
  <linearGradient id="linearGradient2215" gradientTransform="matrix(.26923078 0 0 .18617021 -4.923077 241.08511)" gradientUnits="userSpaceOnUse" x1="48" x2="464" y1="44" y2="44">
    <stop offset="0" stop-color="#c0bfbc"/>
    <stop offset=".05" stop-color="#f6f5f4"/>
    <stop offset=".1" stop-color="#c0bfbc"/>
    <stop offset=".9" stop-color="#c0bfbc"/>
    <stop offset=".95" stop-color="#3584e4"/>
    <stop offset="1" stop-color="#1a5fb4"/>
  </linearGradient>
  <linearGradient id="linearGradient1132" gradientTransform="matrix(.26923078 0 0 .18617021 -4.923077 241.08511)" gradientUnits="userSpaceOnUse" x1="48" x2="464" y1="44" y2="44">
    <stop offset="0" stop-color="#1a5fb4"/>
    <stop offset=".05" stop-color="#3584e4"/>
    <stop offset=".1" stop-color="#3d3846"/>
    <stop offset=".9" stop-color="#241f31"/>
    <stop offset=".95" stop-color="#3d3846"/>
    <stop offset="1" stop-color="#241f31"/>
  </linearGradient>
  <radialGradient id="radialGradient1154-9" cx="-172" cy="20.939" gradientTransform="matrix(1.5625 0 0 1.3794803 328.74999 166.82207)" gradientUnits="userSpaceOnUse" r="15.857">
    <stop offset="0" stop-color="#fff"/>
    <stop offset="1" stop-color="#fff" stop-opacity=".200837"/>
  </radialGradient>
  <linearGradient id="linearGradient1419" gradientUnits="userSpaceOnUse" x1="41.846442" x2="97.846442" y1="200.23567" y2="200.23567">
    <stop offset="0" stop-color="#949390"/>
    <stop offset=".091" stop-color="#fff"/>
    <stop offset=".336" stop-color="#d5d3cf"/>
    <stop offset=".844" stop-color="#c3c0ba"/>
    <stop offset=".931" stop-color="#fff"/>
    <stop offset="1" stop-color="#68676b"/>
  </linearGradient>
  <g transform="translate(0 -172)">
    <rect fill="url(#linearGradient2215)" height="70" rx="8" width="112" x="8" y="218"/>
    <rect fill="#deddda" height="84" rx="8" ry="8.444" width="112" x="8" y="200"/>
    <path d="m64 208v76h48c4.432 0 8-3.76709 8-8.44531v-59.10938c0-4.67822-3.568-8.44531-8-8.44531z" fill="#3d3846"/>
    <path d="m64 218v70h48c4.432 0 8-3.568 8-8v-54c0-4.432-3.568-8-8-8z" fill="url(#linearGradient1132)"/>
    <path d="m64 200v84h48c4.432 0 8-3.76709 8-8.44531v-67.10938c0-4.67822-3.568-8.44947-8-8.44531z" fill="#3d3846"/>
  </g>
  <g transform="translate(30 -150)">
    <path d="m69.748788 188c-14.359403 0-26 11.6406-26 26 .0094 2.07202.266411 4.13548.765625 6.14648 2.686042-11.83218 13.198801-20.23347 25.332031-20.24414 11.981121.0132 22.402008 8.21199 25.234376 19.85352.436422-1.88774.660467-3.81834.66796-5.75586 0-14.3594-11.640592-26-25.999992-26zm-27.902344 23.90234v14c0 15.46397 12.536034 28 28 28s27.999996-12.53603 27.999996-28v-14c0 7.1509-2.68447 13.074-7.0957 17.37891-4.884992 6.72441-12.690467 10.70808-21.001952 10.71875-8.608416-.01-16.653796-4.28029-21.486328-11.4043-4.006862-4.2395-6.416016-9.91612-6.416016-16.69336z" fill="url(#linearGradient1419)"/>
    <path d="m69.999998 195.35233a24.999999 24.999999 0 0 0 -24.777219 21.84753 24.999999 24.999999 0 0 0 24.777219 21.90247 24.999999 24.999999 0 0 0 24.777222-21.84752 24.999999 24.999999 0 0 0 -24.777222-21.90248z" fill="#3d3846"/>
    <g transform="translate(10 -4)">
      <path d="m59.999998 199.35233a24.999999 24.999999 0 0 0 -24.777218 21.84753 24.999999 24.999999 0 0 0 24.777218 21.90247 24.999999 24.999999 0 0 0 24.777218-21.84752 24.999999 24.999999 0 0 0 -24.777218-21.90248z" fill="#fff" opacity=".2"/>
      <path d="m59.999998 199.35233a24.999999 24.999999 0 0 0 -24.777218 21.84753 24.999999 24.999999 0 0 0 24.777218 21.90247 24.999999 24.999999 0 0 0 24.777218-21.84752 24.999999 24.999999 0 0 0 -24.777218-21.90248z" fill="url(#radialGradient1154-9)"/>
    </g>
    <path d="m69.999998 189.10233a24.999999 24.999999 0 0 0 -25 25 24.999999 24.999999 0 0 0 .222779 3.09753 24.999999 24.999999 0 0 1 24.777221-21.84753 24.999999 24.999999 0 0 1 24.777222 21.90248 24.999999 24.999999 0 0 0 .22278-3.15248 24.999999 24.999999 0 0 0 -25.000002-25z" fill="#453637" opacity=".1"/>
    <circle cx="69.749" cy="214" fill="none" r="26" stroke="#f6f5f4" stroke-linecap="square" stroke-linejoin="round" stroke-width="4"/>
  </g>
</svg>

<svg xmlns="http://www.w3.org/2000/svg" xmlns:xlink="http://www.w3.org/1999/xlink" width="128" height="128" version="1.0" viewBox="0 0 128 128" style="enable-background:new">
 <title id="title4162">
  Adwaita Icon Template
 </title>
 <defs>
  <linearGradient id="linearGradient1161">
   <stop style="stop-color:#c0bfbc" id="stop1149" offset="0"/>
   <stop id="stop1151" offset=".05" style="stop-color:#f6f5f4"/>
   <stop style="stop-color:#c0bfbc" id="stop1153" offset=".1"/>
   <stop id="stop1155" offset=".9" style="stop-color:#c0bfbc"/>
   <stop style="stop-color:#3584e4" id="stop1157" offset=".95"/>
   <stop style="stop-color:#1a5fb4" id="stop1159" offset="1"/>
  </linearGradient>
  <linearGradient id="linearGradient1147">
   <stop style="stop-color:#1a5fb4" id="stop1135" offset="0"/>
   <stop id="stop1137" offset=".05" style="stop-color:#3584e4"/>
   <stop style="stop-color:#3d3846" id="stop1139" offset=".1"/>
   <stop id="stop1141" offset=".9" style="stop-color:#241f31"/>
   <stop style="stop-color:#3d3846" id="stop1143" offset=".95"/>
   <stop style="stop-color:#241f31" id="stop1145" offset="1"/>
  </linearGradient>
  <radialGradient id="radialGradient1034" cx="105.224" cy="148.63" r="160" fx="105.224" fy="148.63" gradientTransform="matrix(-0.84951661,2.088811,-1.1326494,-1.1646366,289.73561,-250.69374)" gradientUnits="userSpaceOnUse" xlink:href="#linearGradient1634"/>
  <linearGradient id="linearGradient1634">
   <stop id="stop1630" offset="0" style="stop-color:#e0371b"/>
   <stop id="stop1632" offset="1" style="stop-color:#f6d32d"/>
  </linearGradient>
  <radialGradient id="radialGradient1036" cx="352.98" cy="275.93" r="192" fx="352.98" fy="275.93" gradientTransform="matrix(0.92527368,-1.6026212,0.97903709,0.56524733,-204.74909,514.72426)" gradientUnits="userSpaceOnUse" xlink:href="#linearGradient1352"/>
  <linearGradient id="linearGradient1352">
   <stop style="stop-color:#50db81" id="stop1348" offset="0"/>
   <stop style="stop-color:#8ff0a4;stop-opacity:0.00414938" id="stop1350" offset="1"/>
  </linearGradient>
  <radialGradient id="radialGradient1038" cx="527.624" cy="194.651" r="192" fx="527.624" fy="194.651" gradientTransform="matrix(0,1.395307,-1.4234719,-1.3355771e-7,661.07984,-908.19687)" gradientUnits="userSpaceOnUse" xlink:href="#linearGradient1644"/>
  <linearGradient id="linearGradient1644">
   <stop id="stop1640" offset="0" style="stop-color:#4a86cf"/>
   <stop id="stop1642" offset="1" style="stop-color:#87bae1;stop-opacity:0"/>
  </linearGradient>
  <clipPath id="clipPath1766-0" clipPathUnits="userSpaceOnUse">
   <path style="fill:none;stroke:#000000;stroke-width:2;stroke-linecap:square;stroke-linejoin:round" d="M 33.125563,229.51286 A 12.742462,12.742462 0 0 0 20.49665,240.64851 12.742462,12.742462 0 0 0 33.125563,251.81217 12.742462,12.742462 0 0 0 45.754475,240.67652 12.742462,12.742462 0 0 0 33.125563,229.51286 Z"/>
  </clipPath>
  <radialGradient id="radialGradient1049" cx="105.224" cy="148.63" r="160" fx="105.224" fy="148.63" gradientTransform="matrix(-0.84951661,2.088811,-1.1326494,-1.1646366,289.73561,-250.69374)" gradientUnits="userSpaceOnUse" xlink:href="#linearGradient1634"/>
  <radialGradient id="radialGradient1057" cx="352.98" cy="275.93" r="192" fx="352.98" fy="275.93" gradientTransform="matrix(0.92527368,-1.6026212,0.97903709,0.56524733,-204.74909,514.72426)" gradientUnits="userSpaceOnUse" xlink:href="#linearGradient1352"/>
  <radialGradient id="radialGradient1065" cx="527.624" cy="194.651" r="192" fx="527.624" fy="194.651" gradientTransform="matrix(0,1.395307,-1.4234719,-1.3355771e-7,661.07984,-908.19687)" gradientUnits="userSpaceOnUse" xlink:href="#linearGradient1644"/>
  <radialGradient id="radialGradient1085" cx="105.224" cy="148.63" r="160" fx="105.224" fy="148.63" gradientTransform="matrix(-0.84951661,2.088811,-1.1326494,-1.1646366,289.73561,-250.69374)" gradientUnits="userSpaceOnUse" xlink:href="#linearGradient1634"/>
  <radialGradient id="radialGradient1093" cx="352.98" cy="275.93" r="192" fx="352.98" fy="275.93" gradientTransform="matrix(0.92527368,-1.6026212,0.97903709,0.56524733,-204.74909,514.72426)" gradientUnits="userSpaceOnUse" xlink:href="#linearGradient1352"/>
  <radialGradient id="radialGradient1101" cx="527.624" cy="194.651" r="192" fx="527.624" fy="194.651" gradientTransform="matrix(0,1.395307,-1.4234719,-1.3355771e-7,661.07984,-908.19687)" gradientUnits="userSpaceOnUse" xlink:href="#linearGradient1644"/>
  <linearGradient id="linearGradient2215" x1="48" x2="464" y1="44" y2="44" gradientTransform="matrix(0.26923078,0,0,0.18617021,-4.9230769,241.08511)" gradientUnits="userSpaceOnUse" xlink:href="#linearGradient1161"/>
  <linearGradient id="linearGradient1132" x1="48" x2="464" y1="44" y2="44" gradientTransform="matrix(0.26923078,0,0,0.18617021,-4.9230769,241.08511)" gradientUnits="userSpaceOnUse" xlink:href="#linearGradient1147"/>
  <radialGradient id="radialGradient1034-3" cx="105.224" cy="148.63" r="160" fx="105.224" fy="148.63" gradientTransform="matrix(-0.84951661,2.088811,-1.1326494,-1.1646366,289.73561,-250.69374)" gradientUnits="userSpaceOnUse" xlink:href="#linearGradient1634"/>
  <radialGradient id="radialGradient1036-5" cx="352.98" cy="275.93" r="192" fx="352.98" fy="275.93" gradientTransform="matrix(0.92527368,-1.6026212,0.97903709,0.56524733,-204.74909,514.72426)" gradientUnits="userSpaceOnUse" xlink:href="#linearGradient1352"/>
  <radialGradient id="radialGradient1038-6" cx="527.624" cy="194.651" r="192" fx="527.624" fy="194.651" gradientTransform="matrix(0,1.395307,-1.4234719,-1.3355771e-7,661.07984,-908.19687)" gradientUnits="userSpaceOnUse" xlink:href="#linearGradient1644"/>
  <clipPath id="clipPath1766-0-1" clipPathUnits="userSpaceOnUse">
   <path style="fill:none;stroke:#000000;stroke-width:2;stroke-linecap:square;stroke-linejoin:round" d="M 33.125563,229.51286 A 12.742462,12.742462 0 0 0 20.49665,240.64851 12.742462,12.742462 0 0 0 33.125563,251.81217 12.742462,12.742462 0 0 0 45.754475,240.67652 12.742462,12.742462 0 0 0 33.125563,229.51286 Z"/>
  </clipPath>
  <radialGradient id="radialGradient1049-7" cx="105.224" cy="148.63" r="160" fx="105.224" fy="148.63" gradientTransform="matrix(-0.84951661,2.088811,-1.1326494,-1.1646366,289.73561,-250.69374)" gradientUnits="userSpaceOnUse" xlink:href="#linearGradient1634"/>
  <radialGradient id="radialGradient1057-0" cx="352.98" cy="275.93" r="192" fx="352.98" fy="275.93" gradientTransform="matrix(0.92527368,-1.6026212,0.97903709,0.56524733,-204.74909,514.72426)" gradientUnits="userSpaceOnUse" xlink:href="#linearGradient1352"/>
  <radialGradient id="radialGradient1065-9" cx="527.624" cy="194.651" r="192" fx="527.624" fy="194.651" gradientTransform="matrix(0,1.395307,-1.4234719,-1.3355771e-7,661.07984,-908.19687)" gradientUnits="userSpaceOnUse" xlink:href="#linearGradient1644"/>
  <linearGradient id="linearGradient1368">
   <stop style="stop-color:#949390" id="stop1364" offset="0"/>
   <stop id="stop1372" offset=".091" style="stop-color:#ffffff"/>
   <stop style="stop-color:#d5d3cf" id="stop1380" offset=".336"/>
   <stop id="stop1382" offset=".844" style="stop-color:#c3c0ba"/>
   <stop style="stop-color:#ffffff" id="stop1384" offset=".931"/>
   <stop style="stop-color:#68676b" id="stop1366" offset="1"/>
  </linearGradient>
  <linearGradient id="linearGradient1100">
   <stop style="stop-color:#ffffff" id="stop1096" offset="0"/>
   <stop style="stop-color:#ffffff;stop-opacity:0.20083682" id="stop1098" offset="1"/>
  </linearGradient>
  <radialGradient id="radialGradient1085-3" cx="105.224" cy="148.63" r="160" fx="105.224" fy="148.63" gradientTransform="matrix(-0.84951661,2.088811,-1.1326494,-1.1646366,289.73561,-250.69374)" gradientUnits="userSpaceOnUse" xlink:href="#linearGradient1634"/>
  <radialGradient id="radialGradient1093-6" cx="352.98" cy="275.93" r="192" fx="352.98" fy="275.93" gradientTransform="matrix(0.92527368,-1.6026212,0.97903709,0.56524733,-204.74909,514.72426)" gradientUnits="userSpaceOnUse" xlink:href="#linearGradient1352"/>
  <radialGradient id="radialGradient1101-0" cx="527.624" cy="194.651" r="192" fx="527.624" fy="194.651" gradientTransform="matrix(0,1.395307,-1.4234719,-1.3355771e-7,661.07984,-908.19687)" gradientUnits="userSpaceOnUse" xlink:href="#linearGradient1644"/>
  <radialGradient id="radialGradient1280-6" cx="105.224" cy="148.63" r="160" fx="105.224" fy="148.63" gradientTransform="matrix(-0.84951661,2.088811,-1.1326494,-1.1646366,289.73561,-250.69374)" gradientUnits="userSpaceOnUse" xlink:href="#linearGradient1634"/>
  <radialGradient id="radialGradient1282-1" cx="352.98" cy="275.93" r="192" fx="352.98" fy="275.93" gradientTransform="matrix(0.92527368,-1.6026212,0.97903709,0.56524733,-204.74909,514.72426)" gradientUnits="userSpaceOnUse" xlink:href="#linearGradient1352"/>
  <radialGradient id="radialGradient1284-9" cx="527.624" cy="194.651" r="192" fx="527.624" fy="194.651" gradientTransform="matrix(0,1.395307,-1.4234719,-1.3355771e-7,661.07984,-908.19687)" gradientUnits="userSpaceOnUse" xlink:href="#linearGradient1644"/>
  <clipPath id="clipPath1766-0-1-2" clipPathUnits="userSpaceOnUse">
   <path style="fill:none;stroke:#000000;stroke-width:2;stroke-linecap:square;stroke-linejoin:round" d="M 33.125563,229.51286 A 12.742462,12.742462 0 0 0 20.49665,240.64851 12.742462,12.742462 0 0 0 33.125563,251.81217 12.742462,12.742462 0 0 0 45.754475,240.67652 12.742462,12.742462 0 0 0 33.125563,229.51286 Z"/>
  </clipPath>
  <radialGradient id="radialGradient1308" cx="105.224" cy="148.63" r="160" fx="105.224" fy="148.63" gradientTransform="matrix(-0.84951661,2.088811,-1.1326494,-1.1646366,289.73561,-250.69374)" gradientUnits="userSpaceOnUse" xlink:href="#linearGradient1634"/>
  <radialGradient id="radialGradient1316" cx="352.98" cy="275.93" r="192" fx="352.98" fy="275.93" gradientTransform="matrix(0.92527368,-1.6026212,0.97903709,0.56524733,-204.74909,514.72426)" gradientUnits="userSpaceOnUse" xlink:href="#linearGradient1352"/>
  <radialGradient id="radialGradient1324" cx="527.624" cy="194.651" r="192" fx="527.624" fy="194.651" gradientTransform="matrix(0,1.395307,-1.4234719,-1.3355771e-7,661.07984,-908.19687)" gradientUnits="userSpaceOnUse" xlink:href="#linearGradient1644"/>
  <radialGradient id="radialGradient1154-9" cx="-172" cy="20.939" r="15.857" fx="-172" fy="20.939" gradientTransform="matrix(1.5625,0,0,1.3794803,328.74999,166.82207)" gradientUnits="userSpaceOnUse" xlink:href="#linearGradient1100"/>
  <linearGradient id="linearGradient1419" x1="22" x2="62" y1="37" y2="37" gradientTransform="matrix(1.4,0,0,1.4,11.046442,148.43567)" gradientUnits="userSpaceOnUse" xlink:href="#linearGradient1368"/>
 </defs>
 <g id="layer1" transform="translate(0,-172)">
  <g id="layer2" style="display:none">
   <g style="enable-background:new">
    <rect width="128" height="128" x="0" y="172" style="fill:#f0f0f0"/>
    <circle style="opacity:0.1;fill:none;stroke:#000000;stroke-width:0.99000001;stroke-dasharray:0.99000001, 0.99000001" cx="64" cy="236" r="59.504"/>
    <rect style="opacity:0.1;fill:none;stroke:#000000;stroke-width:0.99000001;stroke-dasharray:0.99000001, 0.99000001" width="87.01" height="111.01" x="20.5" y="180.5" rx="8.701" ry="7.929"/>
    <rect style="opacity:0.1;fill:none;stroke:#000000;stroke-width:0.99000001;stroke-dasharray:0.99000001, 0.99000001" width="103.01" height="103.01" x="12.49" y="184.5" rx="7.924" ry="7.924"/>
    <rect style="opacity:0.1;fill:none;stroke:#000000;stroke-width:0.99000001;stroke-dasharray:0.99000001, 0.99000001" width="111.01" height="87.01" x="8.49" y="200.5" rx="7.929" ry="8.701"/>
    <path style="fill:none;stroke:#62a0ea;stroke-width:2" d="M 2.6203015e-5,288.99999 H 128.00003"/>
   </g>
  </g>
  <g id="layer9">
   <rect style="fill:url(#linearGradient2215)" width="112" height="70" x="8" y="218" rx="8" ry="8"/>
   <rect width="112" height="84" x="8" y="200" rx="8" ry="8.444" style="fill:#deddda"/>
   <path style="fill:#3d3846" d="m 64,208 v 76 h 48 c 4.432,0 8,-3.76709 8,-8.44531 V 216.44531 C 120,211.76709 116.432,208 112,208 Z"/>
   <path style="fill:url(#linearGradient1132)" d="m 64,218 v 70 h 48 c 4.432,0 8,-3.568 8,-8 v -54 c 0,-4.432 -3.568,-8 -8,-8 z"/>
   <path d="m 64,200 v 84 h 48 c 4.432,0 8,-3.76709 8,-8.44531 v -67.10938 c 0,-4.67822 -3.568,-8.44947 -8,-8.44531 z" style="fill:#3d3846"/>
  </g>
  <g transform="translate(30,22)">
   <path style="fill:url(#linearGradient1419)" d="m 69.748788,188 c -14.359403,0 -26,11.6406 -26,26 0.0094,2.07202 0.266411,4.13548 0.765625,6.14648 2.686042,-11.83218 13.198801,-20.23347 25.332031,-20.24414 11.981121,0.0132 22.402008,8.21199 25.234376,19.85352 0.436422,-1.88774 0.660467,-3.81834 0.66796,-5.75586 0,-14.3594 -11.640592,-26 -25.999992,-26 z m -27.902344,23.90234 v 14 c 0,15.46397 12.536034,28 28,28 15.463966,0 27.999996,-12.53603 27.999996,-28 v -14 c 0,7.1509 -2.68447,13.074 -7.0957,17.37891 C 85.865748,236.00566 78.060273,239.98933 69.748788,240 61.140372,239.99 53.094992,235.71971 48.26246,228.5957 c -4.006862,-4.2395 -6.416016,-9.91612 -6.416016,-16.69336 z"/>
   <path d="M 69.999998,195.35233 A 24.999999,24.999999 0 0 0 45.222779,217.19986 24.999999,24.999999 0 0 0 69.999998,239.10233 24.999999,24.999999 0 0 0 94.77722,217.25481 24.999999,24.999999 0 0 0 69.999998,195.35233 Z" style="fill:#3d3846"/>
   <g transform="translate(10,-4)">
    <path style="opacity:0.2;fill:#ffffff" d="M 59.999998,199.35233 A 24.999999,24.999999 0 0 0 35.22278,221.19986 24.999999,24.999999 0 0 0 59.999998,243.10233 24.999999,24.999999 0 0 0 84.777216,221.25481 24.999999,24.999999 0 0 0 59.999998,199.35233 Z"/>
    <path d="M 59.999998,199.35233 A 24.999999,24.999999 0 0 0 35.22278,221.19986 24.999999,24.999999 0 0 0 59.999998,243.10233 24.999999,24.999999 0 0 0 84.777216,221.25481 24.999999,24.999999 0 0 0 59.999998,199.35233 Z" style="fill:url(#radialGradient1154-9)"/>
   </g>
   <path d="m 69.999998,189.10233 a 24.999999,24.999999 0 0 0 -25,25 24.999999,24.999999 0 0 0 0.222779,3.09753 24.999999,24.999999 0 0 1 24.777221,-21.84753 24.999999,24.999999 0 0 1 24.777222,21.90248 24.999999,24.999999 0 0 0 0.22278,-3.15248 24.999999,24.999999 0 0 0 -25.000002,-25 z" style="opacity:0.1;fill:#453637"/>
   <circle style="fill:none;stroke:#f6f5f4;stroke-width:3.99999976;stroke-linecap:square;stroke-linejoin:round" cx="69.749" cy="214" r="26"/>
  </g>
 </g>
</svg>
